X: 2955
T: Barrowburn
R: reel
M: 4/4
K: Dmajor
FE|:D3E FAAd|B3A BddB|A3B d2de|fedB AFEF|
D3E FAAd|B3A Bdde|f2af e2fe|dBAB d2:|
cd|:e3f ecBA|f3g fdBA|g3a gecA|a3g f2ef|
g3a gecA|a3g f2ef|g2ag f2ed|BAAB d2:|

